X: 2313
T: Miss Gibson.s (or the Cumberland) Reel
%R: reel
B: Niel Gow & Sons "Complete Repository" v.2 p.31 #3
Z: 2021 John Chambers <jc:trillian.mit.edu>
M: C
L: 1/8
K: Bb
% - - - - - - - - - -
% Voice 1 reformatted for 2 4-bar staffs, to get similar spacing in both.
V: 1 staves=2
   F | TB2b>g   f(dcB) | AFcF  dFcF | TB2b>g   fdTcB | FBAc  dBB :|
|: c | (BGTF)>E (DEF)D | ECC=B cGGA | (BGTF)>E D>EFD | B,BAc dBB :|
% - - - - - - - - - -
% Voice 2 preserves the staff layout in the book.
V: 2 clef=bass middle=d
z | B2[g2e2] b2e2 | f2a2 b2f2 | g2e2 d2e2 | f2F2 B2B, :||: z | e2a2 b2B2 |
c2f2 e2c2 | e2a2 b2B2 | B2F2 [B2B,2][BB,] :|


